public/assets/icons/react-js-icon.svg

<svg xmlns="http://www.w3.org/2000/svg" viewBox="0 0 122.88 109.43" xmlns:v="https://vecta.io/nano"><path d="M122.88 54.73c0-8.14-10.19-15.85-25.82-20.64 3.61-15.93 2-28.6-5.06-32.66-1.63-.95-3.53-1.4-5.61-1.4v5.59c1.15 0 2.08.23 2.86.65 3.41 1.95 4.88 9.39 3.73 18.96-.28 2.35-.73 4.83-1.28 7.36-4.91-1.2-10.27-2.13-15.9-2.73-3.38-4.63-6.89-8.84-10.42-12.52C73.54 9.74 81.2 5.59 86.41 5.59V0h0c-6.89 0-15.9 4.91-25.02 13.43C52.27 4.96 43.26.1 36.37.1v5.59c5.18 0 12.87 4.13 21.04 11.67-3.51 3.68-7.01 7.86-10.34 12.5-5.66.6-11.02 1.53-15.93 2.75-.58-2.5-1-4.93-1.3-7.26-1.18-9.57.28-17.01 3.66-18.99.75-.45 1.73-.65 2.88-.65V.13h0c-2.1 0-4.01.45-5.66 1.4-7.04 4.06-8.62 16.71-4.98 32.59C10.14 38.92 0 46.61 0 54.73c0 8.14 10.19 15.85 25.82 20.64-3.61 15.93-2 28.6 5.06 32.66 1.63.95 3.53 1.4 5.64 1.4 6.89 0 15.9-4.91 25.02-13.43 9.12 8.47 18.13 13.33 25.02 13.33 2.1 0 4.01-.45 5.66-1.4 7.04-4.06 8.62-16.71 4.98-32.59 15.54-4.78 25.68-12.5 25.68-20.61h0zm-50.02 0a11.45 11.45 0 1 0-22.9 0c0 6.33 5.12 11.45 11.45 11.45 6.33-.01 11.45-5.13 11.45-11.45h0zM36.34.1h0 0 0zm53.93 37.92c-.93 3.23-2.08 6.56-3.38 9.89-1.03-2-2.1-4.01-3.28-6.01-1.15-2-2.38-3.96-3.61-5.86 3.56.53 6.99 1.18 10.27 1.98h0zM78.8 64.7c-1.95 3.38-3.96 6.59-6.04 9.57a128.5 128.5 0 0 1-11.32.5c-3.78 0-7.56-.18-11.27-.48-2.08-2.98-4.11-6.16-6.06-9.52-1.9-3.28-3.63-6.61-5.21-9.97 1.55-3.36 3.31-6.71 5.18-9.99 1.95-3.38 3.96-6.59 6.04-9.57a128.5 128.5 0 0 1 11.32-.5c3.78 0 7.56.18 11.27.48 2.08 2.98 4.11 6.16 6.06 9.52 1.9 3.28 3.63 6.61 5.21 9.97-1.58 3.35-3.3 6.7-5.18 9.99h0zm8.09-3.26c1.35 3.36 2.5 6.71 3.46 9.97a110.99 110.99 0 0 1-10.32 2 144.13 144.13 0 0 0 3.61-5.94c1.14-2 2.22-4.03 3.25-6.03h0zm-25.4 26.72c-2.33-2.4-4.66-5.08-6.96-8.01 2.25.1 4.56.18 6.89.18 2.35 0 4.68-.05 6.96-.18a98.98 98.98 0 0 1-6.89 8.01h0zM42.86 73.41c-3.56-.53-6.99-1.18-10.27-1.98.93-3.23 2.08-6.56 3.38-9.89 1.03 2 2.1 4.01 3.28 6.01 1.18 2.01 2.38 3.96 3.61 5.86h0zm18.5-52.12c2.33 2.4 4.66 5.08 6.96 8.01-2.25-.1-4.56-.18-6.89-.18-2.35 0-4.68.05-6.96.18a98.98 98.98 0 0 1 6.89-8.01h0zM42.83 36.04a144.13 144.13 0 0 0-3.61 5.94c-1.15 2-2.23 4.01-3.26 6.01-1.35-3.36-2.5-6.71-3.46-9.97 3.29-.78 6.75-1.45 10.33-1.98h0zM20.16 67.4c-8.87-3.78-14.6-8.74-14.6-12.67s5.74-8.92 14.6-12.67c2.15-.93 4.51-1.75 6.94-2.53 1.43 4.91 3.31 10.02 5.64 15.25-2.3 5.21-4.16 10.29-5.56 15.18-2.48-.78-4.84-1.63-7.02-2.56h0zm13.48 35.79c-3.41-1.95-4.88-9.39-3.73-18.96.28-2.35.73-4.83 1.28-7.36 4.91 1.2 10.27 2.13 15.9 2.73 3.38 4.63 6.89 8.84 10.42 12.52-8.17 7.59-15.83 11.75-21.04 11.75-1.13-.03-2.08-.25-2.83-.68h0zm59.41-19.08c1.18 9.57-.28 17.01-3.66 18.99-.75.45-1.73.65-2.88.65-5.18 0-12.87-4.13-21.04-11.67 3.51-3.68 7.01-7.86 10.34-12.5 5.66-.6 11.02-1.53 15.93-2.76.58 2.53 1.03 4.96 1.31 7.29h0zm9.64-16.71c-2.15.93-4.51 1.75-6.94 2.53-1.43-4.91-3.31-10.02-5.64-15.25 2.3-5.21 4.16-10.29 5.56-15.18a83.59 83.59 0 0 1 7.04 2.55c8.87 3.78 14.6 8.74 14.6 12.67-.02 3.94-5.75 8.92-14.62 12.68h0z" fill-rule="evenodd" fill="#00d8ff"/></svg>

<?xml version="1.0" encoding="utf-8"?><svg version="1.1" id="Layer_1" xmlns="http://www.w3.org/2000/svg" xmlns:xlink="http://www.w3.org/1999/xlink" x="0px" y="0px" viewBox="0 0 122.88 109.43" style="enable-background:new 0 0 122.88 109.43" xml:space="preserve"><style type="text/css">.st0{fill-rule:evenodd;clip-rule:evenodd;fill:#00D8FF;}</style><g><path class="st0" d="M122.88,54.73c0-8.14-10.19-15.85-25.82-20.64c3.61-15.93,2-28.6-5.06-32.66c-1.63-0.95-3.53-1.4-5.61-1.4 v5.59c1.15,0,2.08,0.23,2.86,0.65c3.41,1.95,4.88,9.39,3.73,18.96c-0.28,2.35-0.73,4.83-1.28,7.36c-4.91-1.2-10.27-2.13-15.9-2.73 c-3.38-4.63-6.89-8.84-10.42-12.52C73.54,9.74,81.2,5.59,86.41,5.59V0l0,0c-6.89,0-15.9,4.91-25.02,13.43 C52.27,4.96,43.26,0.1,36.37,0.1v5.59c5.18,0,12.87,4.13,21.04,11.67c-3.51,3.68-7.01,7.86-10.34,12.5 c-5.66,0.6-11.02,1.53-15.93,2.75c-0.58-2.5-1-4.93-1.3-7.26c-1.18-9.57,0.28-17.01,3.66-18.99c0.75-0.45,1.73-0.65,2.88-0.65V0.13 l0,0c-2.1,0-4.01,0.45-5.66,1.4c-7.04,4.06-8.62,16.71-4.98,32.59C10.14,38.92,0,46.61,0,54.73c0,8.14,10.19,15.85,25.82,20.64 c-3.61,15.93-2,28.6,5.06,32.66c1.63,0.95,3.53,1.4,5.64,1.4c6.89,0,15.9-4.91,25.02-13.43c9.12,8.47,18.13,13.33,25.02,13.33 c2.1,0,4.01-0.45,5.66-1.4c7.04-4.06,8.62-16.71,4.98-32.59C112.74,70.56,122.88,62.84,122.88,54.73L122.88,54.73z M72.86,54.73 c0-6.32-5.12-11.45-11.45-11.45c-6.32,0-11.45,5.12-11.45,11.45s5.12,11.45,11.45,11.45C67.74,66.17,72.86,61.05,72.86,54.73 L72.86,54.73z M36.34,0.1L36.34,0.1L36.34,0.1L36.34,0.1z M90.27,38.02c-0.93,3.23-2.08,6.56-3.38,9.89c-1.03-2-2.1-4.01-3.28-6.01 c-1.15-2-2.38-3.96-3.61-5.86C83.56,36.57,86.99,37.22,90.27,38.02L90.27,38.02z M78.8,64.7c-1.95,3.38-3.96,6.59-6.04,9.57 c-3.73,0.33-7.51,0.5-11.32,0.5c-3.78,0-7.56-0.18-11.27-0.48c-2.08-2.98-4.11-6.16-6.06-9.52c-1.9-3.28-3.63-6.61-5.21-9.97 c1.55-3.36,3.31-6.71,5.18-9.99c1.95-3.38,3.96-6.59,6.04-9.57c3.73-0.33,7.51-0.5,11.32-0.5c3.78,0,7.56,0.18,11.27,0.48 c2.08,2.98,4.11,6.16,6.06,9.52c1.9,3.28,3.63,6.61,5.21,9.97C82.4,58.06,80.68,61.41,78.8,64.7L78.8,64.7z M86.89,61.44 c1.35,3.36,2.5,6.71,3.46,9.97c-3.28,0.8-6.74,1.48-10.32,2c1.23-1.93,2.45-3.91,3.61-5.94C84.78,65.47,85.86,63.44,86.89,61.44 L86.89,61.44z M61.49,88.16c-2.33-2.4-4.66-5.08-6.96-8.01c2.25,0.1,4.56,0.18,6.89,0.18c2.35,0,4.68-0.05,6.96-0.18 C66.12,83.08,63.79,85.76,61.49,88.16L61.49,88.16z M42.86,73.41c-3.56-0.53-6.99-1.18-10.27-1.98c0.93-3.23,2.08-6.56,3.38-9.89 c1.03,2,2.1,4.01,3.28,6.01C40.43,69.56,41.63,71.51,42.86,73.41L42.86,73.41z M61.36,21.29c2.33,2.4,4.66,5.08,6.96,8.01 c-2.25-0.1-4.56-0.18-6.89-0.18c-2.35,0-4.68,0.05-6.96,0.18C56.73,26.37,59.06,23.69,61.36,21.29L61.36,21.29z M42.83,36.04 c-1.23,1.93-2.45,3.91-3.61,5.94c-1.15,2-2.23,4.01-3.26,6.01c-1.35-3.36-2.5-6.71-3.46-9.97C35.79,37.24,39.25,36.57,42.83,36.04 L42.83,36.04z M20.16,67.4c-8.87-3.78-14.6-8.74-14.6-12.67c0-3.93,5.74-8.92,14.6-12.67c2.15-0.93,4.51-1.75,6.94-2.53 c1.43,4.91,3.31,10.02,5.64,15.25c-2.3,5.21-4.16,10.29-5.56,15.18C24.7,69.18,22.34,68.33,20.16,67.4L20.16,67.4z M33.64,103.19 c-3.41-1.95-4.88-9.39-3.73-18.96c0.28-2.35,0.73-4.83,1.28-7.36c4.91,1.2,10.27,2.13,15.9,2.73c3.38,4.63,6.89,8.84,10.42,12.52 c-8.17,7.59-15.83,11.75-21.04,11.75C35.34,103.84,34.39,103.62,33.64,103.19L33.64,103.19z M93.05,84.11 c1.18,9.57-0.28,17.01-3.66,18.99c-0.75,0.45-1.73,0.65-2.88,0.65c-5.18,0-12.87-4.13-21.04-11.67c3.51-3.68,7.01-7.86,10.34-12.5 c5.66-0.6,11.02-1.53,15.93-2.76C92.32,79.35,92.77,81.78,93.05,84.11L93.05,84.11z M102.69,67.4c-2.15,0.93-4.51,1.75-6.94,2.53 c-1.43-4.91-3.31-10.02-5.64-15.25c2.3-5.21,4.16-10.29,5.56-15.18c2.48,0.78,4.83,1.63,7.04,2.55c8.87,3.78,14.6,8.74,14.6,12.67 C117.29,58.66,111.56,63.64,102.69,67.4L102.69,67.4z"/></g></svg>
